X: 38322
T: Stack Of Oats, The
R: barndance
M: 4/4
K: Gmajor
|:D>G|B2 (3BBB B>AG>E|D2 (3DDD D>EG>A|(3BcB A>B (3cdc (3BcB|E2- E>F E2 F>G|
A2 F>G A2 D>F|G2 G>A B2 e>^c|d>Bc>A (3EFE D2|G4 G2:|
(3ABc|d4 g4|d>ed>B G>AB>c|d2 B>d (3gag e2|f2- f>g f2 d>B|
c>BA>B c>de>g|(3fgf e>g (3fgf e>d|(3efe d>f (3efe d>^c|e>d^c>e d2 (3AB=c|
d2 (3ddd g2 (3ggg|d>gd>B G2 (3ABc|d2 (3Bcd g2 (3Bcd|b2- b>^a b2 g2|
a>ba>f d>f (3agf|g>ag>d B>d (3gfe|(3dcB c>A E2 F2|G6||

